!!!COM: Bach, Johann Sebastian
!!!OPR: Joh. Seb. Bachs vierstimmige Choralgesänge
!!!XEN: Four-part Chorales
!!!OTL: 65. Gottes Sohn ist kommen
!!!SCT: BWV 318
!!!SCA: Thematisch-systematisches Verzeichnis der musikalischen Werke Johann Sebastian Bach: Bach-Werke-Verzeichnis (Schmieder)
!!!YOR: Bach Gesellschaft Edition xxxix
!!!ENC: Steven Rasmussen
!!!CDT: 1685/3//-1750/7/28/
!!!OCY: Deutschland
!!!YEC: Copyright (c) 1994, 2000 Center for Computer Assisted Research in the Humanities
!!!YEM: Rights to all derivative editions reserved
!!!YEN: United States of America
**kern	**kern	**kern	**kern	**silbe
*I:[BASSO]	*I:[TENORE]	*I:[ALTO]	*I:[SOPRANO]	*I:[SOPRANO]
*clefF4	*clefGv2	*clefG2	*clefG2	*
*k[f#]	*k[f#]	*k[f#]	*k[f#]	*
*G:	*G:	*G:	*G:	*
*M4/4	*M4/4	*M4/4	*M4/4	*
=1-	=1-	=1-	=1-	=1-
4G	4B	4d	4g	Got-
4C	4c	8eL	8gL	-tes
.	.	8f#J	8aJ	.
8GGL	4d	4g	4b	Sohn
8GJ	.	.	.	.
4A	4c	8f#L	4cc	ist
.	.	8eJ	.	.
=2	=2	=2	=2	=2
8BL	16BLL	8dL	4dd	kom-
.	16cJJ	.	.	.
8A	4d	8f#	.	.
8G	.	8b	4ee	.
8AJ	8c#	8aJ	.	.
2D;	2d;	2f#;	2dd;	-men
=3	=3	=3	=3	=3
4A	8cL	4a	4ee	uns
.	8BJ	.	.	.
4D	8cL	4a	4ff#	Al-
.	8dJ	.	.	.
4E	4B	4g	4gg	-len
4F#	4A	4a	4dd	zu
=4	=4	=4	=4	=4
4G	4d	8gL	4b	From-
.	.	8f#J	.	.
4A	4A	4e	4cc#	.
2D;	2A;	2f#;	2dd;	-men
=5	=5	=5	=5	=5
4E	4G	4e	4cc	hie
4F#	4A	4d	4a	auf
4G	8GL	4d	4b	die-
.	8F#J	.	.	.
4E	4G	4c	4cc	-se
=6	=6	=6	=6	=6
8DL	4G	4.d	4b	Er-
8CJ	.	.	.	.
4D	4F#	.	4a	.
.	.	8c	.	.
2GG;	2G;	2B;	2g;	-den
=7	=7	=7	=7	=7
4D	4A	4d	4f#	in
4E	4G	8c#L	4g	ar-
.	.	8BJ	.	.
4F#	8dL	4A	4a	-men
.	8c#J	.	.	.
4G	4B	4d	4b	Ge-
=8	=8	=8	=8	=8
4C#	4E	[2e	4.a	-ber-
4AA	2A	.	.	.
.	.	.	8g	.
4D	.	8e]	4f#	.
.	.	4d	.	.
4AA	4G	.	4e	.
.	.	8c#	.	.
=9	=9	=9	=9	=9
1D;	1F#;	1A;	1d;	-den,
=10	=10	=10	=10	=10
4BB	4G	4d	4g	dass
4C	4c	8eL	8gL	er
.	.	8f#J	8aJ	.
4G	4d	4g	4b	uns
4E	4c	4g	4cc	von
=11	=11	=11	=11	=11
4D	8cL	4fn	4dd	SÃ¼n-
.	8BJ	.	.	.
4C	4c	8eL	4ee	.
.	.	8f#J	.	.
2G;	2B;	2g;	2dd;	-de
=12	=12	=12	=12	=12
4E	4B	8gL	4g	frei-
.	.	8eJ	.	.
4F#	4A	8dL	4a	-e
.	.	8cJ	.	.
4G	4d	8BL	4b	und
.	.	8AJ	.	.
4E	8eL	8GL	4cc	ent-
.	8AJ	8f#J	.	.
=13	=13	=13	=13	=13
2D	8BL	4.g	4b	-bin-
.	8cJ	.	.	.
.	4d	.	4a	.
.	.	8f#	.	.
2G;	2B;	2d;	2g;	-de.
==|!	==|!	==|!	==|!	==|!
*-	*-	*-	*-	*-
!!!RWG: Key is interpreted using the Humdrum key tool.
!!!URL-pdf: https://s9.imslp.org/files/imglnks/usimg/6/6b/IMSLP24489-PMLP09471-CCARH_Bach_Chorales.pdf#page=45 Musedata edition
!!!URL-pdf: https://s9.imslp.org/files/imglnks/usimg/7/7a/IMSLP04155-Bach_-_BGA_253-438.pdf#page=35 	Bach-Gesellschaft Ausgabe, Band 39 (pp.175-276) Leipzig: Breitkopf und Härtel, 1892. Plate B.W. XXXIX.
!!!END: 1994/06/06
!!!EMD: Converted from MuseData to Humdrum Dec 19, 2000, by Andreas Kornstaedt using muse2kern.
!!!EED: Craig Stuart Sapp
!!!EEV: 2024/03/31
!!!ONB: Some non-unicode characters
!!!filter-keyboard: satb2gs
